Vexed/wwwroot/images/icons/administrative-icon.svg

<svg width="49" height="31" viewBox="0 0 49 31" fill="none" xmlns="http://www.w3.org/2000/svg">
	<path d="M38.9001 10.8C41.5001 10.8 43.6001 12.9 43.6001 15.5C43.6001 18.1 41.5001 20.2 38.9001 20.2C36.3001 20.2 34.1001 18.1 34.1001 15.5C34.1001 12.9 36.3001 10.8 38.9001 10.8Z" fill="#343957"/>
	<path d="M39.4001 22.9L39.9001 21.9H37.8001L38.3001 22.9L37.8001 26.5H37.1001L36.1001 21.1C36.1668 21.1 36.2668 21.1 36.4001 21.1H41.3001C41.4334 21.1 41.5334 21.1 41.6001 21.1L40.6001 26.5H40.0001L39.4001 22.9Z" fill="white"/>
	<path d="M13.5 10.8C16.1 10.8 18.2 12.9 18.2 15.5C18.2 18.1 16.1 20.2 13.5 20.2C10.9 20.2 8.80005 18.1 8.80005 15.5C8.80005 12.9 10.9 10.8 13.5 10.8Z" fill="#343957"/>
	<path fill-rule="evenodd" clip-rule="evenodd" d="M16.4 27.2V24.4C16 25.2 15.7 26.2 15.7 27.2H6.30005V25.1C6.30005 22.6 8.30005 20.6 10.7 20.6H16.2C16.6667 20.6667 17.1 20.7667 17.5 20.9C18.6 19.3 20.4 18.3 22.4 18.3H29.9C31.9 18.3 33.7 19.3 34.8 20.9C35.2 20.7667 35.6334 20.6667 36.1 20.6H41.6C44 20.6 46 22.6 46 25.1V27.2H36.6C36.6 26.2 36.3001 25.2 35.9001 24.3V27.2H16.4ZM36.1 21.1L37.1 26.5H37.7001L38.3 22.9L37.8 21.9H39.9001L39.4001 22.9L39.9001 26.5H40.6L41.6 21.1C41.5334 21.1 41.4334 21.1 41.3 21.1H36.4001C36.2667 21.1 36.1667 21.1 36.1 21.1ZM22.4 18.9L23.8 26.2H28.5L29.9 18.9C29.7667 18.9 29.6334 18.9 29.5 18.9H22.8C22.6667 18.9 22.5334 18.9 22.4 18.9ZM16.2 21.1C16.1334 21.1 16.0334 21.1 15.9 21.1H11C10.8667 21.1 10.7667 21.1 10.7 21.1L11.7 26.5H12.3L12.9 22.9L12.4 21.9H14.5L14 22.9L14.5 26.5H15.2L16.2 21.1Z" fill="#343957"/>
	<path d="M14 22.9L14.5 21.9H12.4L12.9 22.9L12.4 26.5H11.7L10.7 21.1C10.7666 21.1 10.8666 21.1 11 21.1H15.9C16.0333 21.1 16.1333 21.1 16.2 21.1L15.2 26.5H14.6L14 22.9Z" fill="white"/>
	<path d="M26.2 4.79999C29.7 4.79999 32.5999 7.69999 32.5999 11.2C32.5999 14.8 29.7 17.7 26.2 17.7C22.6 17.7 19.7 14.8 19.7 11.2C19.7 7.69999 22.6 4.79999 26.2 4.79999Z" fill="#343957"/>
	<path d="M26.9001 21.3L27.6001 20H24.7001L25.4001 21.3L24.7001 26.2H23.8001L22.4001 18.9C22.5335 18.9 22.6668 18.9 22.8001 18.9H29.5001C29.6335 18.9 29.7668 18.9 29.9001 18.9L28.5001 26.2H27.7001L26.9001 21.3Z" fill="white"/>
	<path d="M25.4 21.3L24.7 20H27.6L26.9 21.3L27.7 26.2H24.7L25.4 21.3Z" fill="#76628B"/>
</svg>

<svg version="1.2" xmlns="http://www.w3.org/2000/svg" viewBox="0 0 49 31" width="49" height="31">
	<title>icons-ai</title>
	<style>
		.s0 { fill: #616e7d } 
		.s1 { fill: #ffffff } 
		.s2 { fill: #aad4c8 } 
	</style>
	<g id="Bg">
	</g>
	<g id="Object">
		<g id="&lt;Group&gt;">
			<path id="&lt;Path&gt;" class="s0" d="m38.9 10.8c2.6 0 4.7 2.1 4.7 4.7 0 2.6-2.1 4.7-4.7 4.7-2.6 0-4.8-2.1-4.8-4.7 0-2.6 2.2-4.7 4.8-4.7z"/>
			<path id="&lt;Path&gt;" class="s1" d="m39.4 22.9l0.5-1h-2.1l0.5 1-0.5 3.6h-0.7l-1-5.4q0.1 0 0.3 0h4.9q0.2 0 0.3 0l-1 5.4h-0.6l-0.6-3.6z"/>
			<path id="&lt;Path&gt;" class="s0" d="m13.5 10.8c2.6 0 4.7 2.1 4.7 4.7 0 2.6-2.1 4.7-4.7 4.7-2.6 0-4.7-2.1-4.7-4.7 0-2.6 2.1-4.7 4.7-4.7z"/>
			<path id="&lt;Compound Path&gt;" fill-rule="evenodd" class="s0" d="m16.4 27.2v-2.8c-0.4 0.8-0.7 1.8-0.7 2.8h-9.4v-2.1c0-2.5 2-4.5 4.4-4.5h5.5q0.7 0.1 1.3 0.3c1.1-1.6 2.9-2.6 4.9-2.6h7.5c2 0 3.8 1 4.9 2.6q0.6-0.2 1.3-0.3h5.5c2.4 0 4.4 2 4.4 4.5v2.1h-9.4c0-1-0.3-2-0.7-2.9v2.9zm19.7-6.1l1 5.4h0.6l0.6-3.6-0.5-1h2.1l-0.5 1 0.5 3.6h0.7l1-5.4q-0.1 0-0.3 0h-4.9q-0.2 0-0.3 0zm-13.7-2.2l1.4 7.3h4.7l1.4-7.3q-0.2 0-0.4 0h-6.7q-0.2 0-0.4 0zm-6.2 2.2q-0.1 0-0.3 0h-4.9q-0.2 0-0.3 0l1 5.4h0.6l0.6-3.6-0.5-1h2.1l-0.5 1 0.5 3.6h0.7z"/>
			<path id="&lt;Path&gt;" class="s1" d="m14 22.9l0.5-1h-2.1l0.5 1-0.5 3.6h-0.7l-1-5.4q0.1 0 0.3 0h4.9q0.2 0 0.3 0l-1 5.4h-0.6l-0.6-3.6z"/>
			<path id="&lt;Path&gt;" class="s0" d="m26.2 4.8c3.5 0 6.4 2.9 6.4 6.4 0 3.6-2.9 6.5-6.4 6.5-3.6 0-6.5-2.9-6.5-6.5 0-3.5 2.9-6.4 6.5-6.4z"/>
			<path id="&lt;Path&gt;" class="s1" d="m26.9 21.3l0.7-1.3h-2.9l0.7 1.3-0.7 4.9h-0.9l-1.4-7.3q0.2 0 0.4 0h6.7q0.2 0 0.4 0l-1.4 7.3h-0.8l-0.8-4.9z"/>
			<path id="&lt;Path&gt;" class="s2" d="m25.4 21.3l-0.7-1.3h2.9l-0.7 1.3 0.8 4.9h-3z"/>
		</g>
	</g>
</svg>
